X:4363
L:1/8
M:6/8
K:D
 GAG F2 E | FEF D3 | GAG AFA | B3 d3 | GAG F2 E | FEF D3 | GAB AFD | TE3 D3 :: GAB TBAB | 
 TBAB BAG | FGA A2 d | ABA AGF | GAB TBAB | TBAB BAG | FAd AFD | TE3 D3 ::[M:2/2][K:A] AEcA ec a2 | 
 gfed cBAG | AEcA ec a2 | gbB^d e2 E2 :: egbg aedc | dcBA AGFE | AEcE ecaf | ecBc A2 A,2 :|

